svgs/solid/album.svg

<svg xmlns="http://www.w3.org/2000/svg" viewBox="0 0 448 512"><!--! Font Awesome Pro 6.2.0 by @fontawesome - https://fontawesome.com License - https://fontawesome.com/license (Commercial License) Copyright 2022 Fonticons, Inc. --><path d="M0 96C0 60.7 28.7 32 64 32H384c35.3 0 64 28.7 64 64V416c0 35.3-28.7 64-64 64H64c-35.3 0-64-28.7-64-64V96zM384 256c0-88.4-71.6-160-160-160S64 167.6 64 256s71.6 160 160 160s160-71.6 160-160zM224 288c-17.7 0-32-14.3-32-32s14.3-32 32-32s32 14.3 32 32s-14.3 32-32 32z"/></svg>

<svg xmlns="http://www.w3.org/2000/svg" viewBox="0 0 448 512"><!--! Font Awesome Pro 6.1.2 by @fontawesome - https://fontawesome.com License - https://fontawesome.com/license (Commercial License) Copyright 2022 Fonticons, Inc. --><path d="M192 256C192 238.3 206.3 224 224 224C241.7 224 256 238.3 256 256C256 273.7 241.7 288 224 288C206.3 288 192 273.7 192 256zM0 96C0 60.65 28.65 32 64 32H384C419.3 32 448 60.65 448 96V416C448 451.3 419.3 480 384 480H64C28.65 480 0 451.3 0 416V96zM224 96C135.6 96 64 167.6 64 256C64 344.4 135.6 416 224 416C312.4 416 384 344.4 384 256C384 167.6 312.4 96 224 96z"/></svg>
